public/Images/couteau.svg

<svg width="161" height="148" viewBox="0 0 161 148" fill="none" xmlns="http://www.w3.org/2000/svg">
<path d="M82.3929 83.2274L76.5174 77.1087L82.3197 70.5054L90.7515 59.7083L35.9536 2.00029C27.4667 11.8166 32.3472 46.2577 32.3472 46.2577C32.3472 46.2577 38.7715 66.3263 57.1098 87.5613C75.4482 108.796 82.8564 98.7012 82.8564 98.7012L76.7514 92.7782L77.6011 91.2034L83.9046 85.4962L82.3929 83.2274Z" fill="#BFC4C9" stroke="black" stroke-width="2" stroke-miterlimit="10"/>
<path d="M145.059 122.16C145.059 122.16 142.905 130.094 138.854 130.154C135.538 130.221 132.698 125.693 131.784 124.076C131.588 123.72 131.484 123.32 131.482 122.913C131.413 119.835 130.923 105.59 127.461 101.506C123.878 97.284 104.333 86.2817 101.252 84.5612C100.997 84.4133 100.77 84.2211 100.582 83.9939C99.2805 82.5014 93.3031 76.6864 84.994 84.3952C84.6474 84.7183 83.736 85.5789 82.8128 86.3024C82.3037 86.6975 81.6595 86.8786 81.0161 86.8075C80.3728 86.7364 79.7806 86.4187 79.3645 85.9213L78.5052 84.5316C78.2324 83.8834 77.7752 83.0971 77.4915 82.4941L74.3382 75.9966C74.1067 75.5249 74.0281 74.9938 74.1134 74.4774C74.1987 73.961 74.4437 73.4852 74.8141 73.1167L87.6716 60.2637C87.9364 59.9985 88.2579 59.7966 88.6124 59.673C88.9668 59.5493 89.3452 59.507 89.7193 59.5494C90.0539 59.5842 90.3785 59.686 90.6736 59.8488C90.9688 60.0115 91.2285 60.2318 91.4372 60.4964C93.9917 63.7118 103.841 75.4451 115.52 80.2849L115.653 80.3335C116.878 80.773 137.128 88.2368 142.22 105.318C142.174 105.361 146.441 120.528 145.059 122.16Z" fill="#796A5D" stroke="black" stroke-width="2" stroke-miterlimit="10"/>
</svg>

<svg xmlns="http://www.w3.org/2000/svg" width="161" height="148" fill="none" stroke="#000" stroke-width="2" stroke-miterlimit="10"><path d="M82.393 83.227l-5.876-6.12 5.802-6.603 8.432-10.797L35.954 2c-8.487 9.816-3.606 44.257-3.606 44.257S38.772 66.326 57.1 87.56 82.856 98.7 82.856 98.7l-6.105-5.923.85-1.575 6.304-5.707-1.512-2.27z" fill="#bfc4c9"/><path d="M145.06 122.16s-2.154 7.934-6.205 7.994c-3.316.067-6.156-4.46-7.07-6.078-.196-.356-.3-.756-.302-1.163-.07-3.078-.56-17.323-4.02-21.407-3.583-4.222-23.128-15.224-26.21-16.945-.255-.148-.482-.34-.67-.567-1.3-1.492-7.28-7.307-15.588.4-.347.323-1.258 1.184-2.18 1.907-.51.395-1.153.576-1.797.505s-1.235-.39-1.652-.886l-.86-1.4c-.273-.648-.73-1.434-1.014-2.037l-3.153-6.498c-.23-.472-.3-1.003-.225-1.52a2.49 2.49 0 0 1 .701-1.361l12.858-12.853c.265-.265.586-.467.94-.59s.733-.166 1.107-.124c.335.035.66.137.954.3s.555.383.764.648c2.554 3.215 12.404 14.95 24.083 19.788l.133.05c1.225.44 21.475 7.903 26.567 24.984-.046.043 4.22 15.2 2.84 16.842z" fill="#796a5d"/></svg>
